X: 1
T: Frankie Kennedy's
M: 6/8
L: 1/8
R: jig
K: Dmaj
ag|fdA dfa|fga b2a|geg fdf|ecA A2a|
fga fga|fga b2a|geg fdf|ecA d2a|
fga dfa|fga b2a|geg fdf|ecA Aag|
fdA dfa|fga b2a|geg fdf|ecA dcB|
|:A2d dcd|Bee ede|fdB AFA|BAF DFG|
A2d dcd|Bee ede|fdB ABc|1dfe dcB:|2dfe d||
